apps/www/public/images/logos/publicity/humata.svg

<svg width="122" height="60" viewBox="0 0 122 60" fill="none" xmlns="http://www.w3.org/2000/svg">
<path fill-rule="evenodd" clip-rule="evenodd" d="M13.6429 25.0947C13.1837 25.0947 12.8114 25.467 12.8114 25.9262V35.0736C12.8114 35.5329 13.1837 35.9051 13.6429 35.9051H16.5534V38.3998H13.6429C11.8059 38.3998 10.3167 36.9106 10.3167 35.0736V25.9262C10.3167 24.0892 11.8059 22.6 13.6429 22.6H16.5534V25.0947H13.6429Z" fill="#7E7E7E"/>
<path fill-rule="evenodd" clip-rule="evenodd" d="M30.2743 35.9053C30.7336 35.9053 31.1059 35.533 31.1059 35.0737V25.9264C31.1059 25.4671 30.7336 25.0948 30.2743 25.0948H27.3638V22.6001H30.2743C32.1113 22.6001 33.6006 24.0893 33.6006 25.9264V35.0737C33.6006 36.9107 32.1113 38.4 30.2743 38.4H27.3638V35.9053H30.2743Z" fill="#7E7E7E"/>
<path d="M29.8585 30.463C29.8585 29.4607 29.1228 28.6115 28.1304 28.4683C26.0048 28.1226 24.3384 26.4538 23.9952 24.3282C23.8471 23.3382 22.9979 22.6026 21.9956 22.6001H21.9215C20.9192 22.6001 20.07 23.3358 19.9268 24.3282C19.5811 26.4538 17.9123 28.1202 15.7867 28.4633C14.7967 28.6115 14.0611 29.4607 14.0586 30.463V30.5371C14.0586 31.5394 14.7943 32.3886 15.7867 32.5318C17.9123 32.8774 19.5787 34.5463 19.9218 36.6719C20.07 37.6618 20.9192 38.3975 21.9215 38.4H21.9956C22.9979 38.4 23.8471 37.6643 23.9903 36.6719C24.3359 34.5463 26.0048 32.8799 28.1304 32.5367C29.1203 32.3886 29.856 31.5394 29.8585 30.5371V30.463ZM26.896 30.5297C26.896 30.5494 26.8688 30.5667 26.8417 30.5716C24.368 30.974 22.4276 32.9145 22.0227 35.3881C22.0227 35.4153 22.003 35.4375 21.9882 35.4375H21.9264C21.9067 35.4375 21.8894 35.4103 21.8845 35.3832C21.4821 32.9095 19.5441 30.9691 17.068 30.5642C17.0408 30.5642 17.0186 30.5445 17.0186 30.5297V30.4679C17.0186 30.4482 17.0458 30.4309 17.0729 30.426C19.5466 30.0236 21.487 28.0831 21.8919 25.6095C21.8919 25.5823 21.9116 25.5601 21.9264 25.5601H21.9882C22.0079 25.5601 22.0252 25.5873 22.0301 25.6144C22.4325 28.0881 24.3705 30.0285 26.8466 30.4334C26.8738 30.4334 26.896 30.4531 26.896 30.4679V30.5297Z" fill="#7E7E7E"/>
<path d="M51.7262 22.6H54.4429V38.1615H51.7262V31.356H44.4249V38.1615H41.7083V22.6H44.4249V28.9286H51.7262V22.6Z" fill="#7E7E7E"/>
<path d="M65.6268 26.7831V38.1617H63.0799V36.9479C62.4431 37.7065 61.488 38.4 60.0448 38.4C57.7101 38.4 56.2668 36.7745 56.2668 34.3254V26.7831H58.8137V33.762C58.8137 35.149 59.4081 36.0377 60.7876 36.0377C61.9337 36.0377 63.0799 35.1707 63.0799 33.5452V26.7831H65.6268Z" fill="#7E7E7E"/>
<path d="M69.9803 31.4864V38.1619H67.4333V26.7833H69.9803V27.997C70.5958 27.2384 71.5509 26.5667 73.0366 26.5667C74.3737 26.5667 75.3713 27.1735 75.9868 28.1488C76.666 27.4118 77.7272 26.5667 79.4464 26.5667C81.7386 26.5667 83.2242 28.2138 83.2242 30.6629V38.1619H80.6774V31.4215C80.6774 30.0127 80.168 28.994 78.8097 28.994C77.7272 28.994 76.6023 29.8609 76.6023 31.4864V38.1619H74.0554V31.4215C74.0554 30.0127 73.546 28.994 72.1876 28.994C71.1051 28.994 69.9803 29.8609 69.9803 31.4864Z" fill="#7E7E7E"/>
<path d="M88.131 38.3568C86.0086 38.3568 84.3743 37.0347 84.3743 34.9974C84.3743 32.8301 85.9661 31.8765 88.1098 31.4213L91.1873 30.7711V30.576C91.1873 29.4924 90.6355 28.8205 89.2771 28.8205C88.0673 28.8205 87.4306 29.384 87.1334 30.4893L84.7351 29.9259C85.2869 28.0403 86.9212 26.5665 89.3832 26.5665C92.0574 26.5665 93.6705 27.8669 93.6705 30.4893V35.3875C93.6705 36.0378 93.9464 36.2328 94.6468 36.1461V38.1618C92.8003 38.3785 91.824 38.01 91.4419 37.0781C90.7416 37.88 89.5742 38.3568 88.131 38.3568ZM91.1873 34.1521V32.7651L88.7889 33.2852C87.7065 33.5236 86.9 33.8704 86.9 34.889C86.9 35.7777 87.5367 36.2761 88.513 36.2761C89.8713 36.2761 91.1873 35.5393 91.1873 34.1521Z" fill="#7E7E7E"/>
<path d="M96.0533 35.3004V28.9934H94.5039V26.7827H96.0533V23.4451H98.5578V26.7827H100.892V28.9934H98.5578V34.8886C98.5578 35.9073 99.1308 36.0156 100.043 36.0156C100.468 36.0156 100.701 35.994 101.083 35.9506V38.1396C100.617 38.2263 99.9798 38.2914 99.3219 38.2914C97.1995 38.2914 96.0533 37.6195 96.0533 35.3004Z" fill="#7E7E7E"/>
<path d="M105.304 38.3568C103.182 38.3568 101.548 37.0347 101.548 34.9974C101.548 32.8301 103.14 31.8765 105.283 31.4213L108.36 30.7711V30.576C108.36 29.4924 107.809 28.8205 106.451 28.8205C105.241 28.8205 104.604 29.384 104.307 30.4893L101.909 29.9259C102.46 28.0403 104.095 26.5665 106.556 26.5665C109.231 26.5665 110.844 27.8669 110.844 30.4893V35.3875C110.844 36.0378 111.121 36.2328 111.821 36.1461V38.1618C109.974 38.3785 108.997 38.01 108.615 37.0781C107.915 37.88 106.748 38.3568 105.304 38.3568ZM108.36 34.1521V32.7651L105.963 33.2852C104.881 33.5236 104.074 33.8704 104.074 34.889C104.074 35.7777 104.711 36.2761 105.686 36.2761C107.045 36.2761 108.36 35.5393 108.36 34.1521Z" fill="#7E7E7E"/>
</svg>

<svg xmlns="http://www.w3.org/2000/svg" width="122" height="60" fill="none" viewBox="0 0 122 60"><path fill="#7e7e7e" fill-rule="evenodd" d="M13.643 25.095a.83.83 0 0 0-.832.831v9.148c0 .459.373.831.832.831h2.91V38.4h-2.91a3.326 3.326 0 0 1-3.326-3.326v-9.148a3.326 3.326 0 0 1 3.326-3.326h2.91v2.495zM30.274 35.905c.46 0 .832-.372.832-.831v-9.148a.83.83 0 0 0-.832-.831h-2.91V22.6h2.91a3.326 3.326 0 0 1 3.327 3.326v9.148a3.326 3.326 0 0 1-3.327 3.326h-2.91v-2.495z" clip-rule="evenodd"/><path fill="#7e7e7e" d="M29.859 30.463a2.015 2.015 0 0 0-1.729-1.995 5 5 0 0 1-4.135-4.14 2.03 2.03 0 0 0-2-1.728h-.073a2.015 2.015 0 0 0-1.995 1.728 5 5 0 0 1-4.14 4.135 2.03 2.03 0 0 0-1.728 2v.074c0 1.002.735 1.852 1.728 1.995a5 5 0 0 1 4.135 4.14c.148.99.997 1.726 2 1.728h.074a2.015 2.015 0 0 0 1.994-1.728 5 5 0 0 1 4.14-4.135 2.03 2.03 0 0 0 1.729-2zm-2.963.067c0 .02-.027.037-.054.042a5.835 5.835 0 0 0-4.82 4.816c0 .027-.019.05-.034.05h-.062c-.02 0-.037-.028-.041-.055a5.83 5.83 0 0 0-4.817-4.819c-.027 0-.05-.02-.05-.034v-.062c0-.02.028-.037.055-.042a5.835 5.835 0 0 0 4.819-4.816c0-.028.02-.05.034-.05h.062c.02 0 .037.027.042.054a5.83 5.83 0 0 0 4.817 4.82c.027 0 .049.02.049.034zM51.726 22.6h2.717v15.561h-2.717v-6.805h-7.301v6.805h-2.717V22.6h2.717v6.329h7.301zM65.627 26.783v11.379H63.08v-1.214c-.637.758-1.592 1.452-3.035 1.452-2.335 0-3.778-1.625-3.778-4.075v-7.542h2.547v6.979c0 1.387.594 2.276 1.974 2.276 1.146 0 2.292-.867 2.292-2.493v-6.762zM69.98 31.486v6.676h-2.547V26.783h2.547v1.214c.616-.759 1.57-1.43 3.057-1.43 1.337 0 2.334.607 2.95 1.582.679-.737 1.74-1.582 3.46-1.582 2.292 0 3.777 1.647 3.777 4.096v7.499h-2.547v-6.74c0-1.41-.509-2.428-1.867-2.428-1.083 0-2.208.867-2.208 2.492v6.676h-2.547v-6.74c0-1.41-.509-2.428-1.867-2.428-1.083 0-2.208.867-2.208 2.492M88.131 38.357c-2.122 0-3.757-1.322-3.757-3.36 0-2.167 1.592-3.12 3.736-3.576l3.077-.65v-.195c0-1.084-.552-1.756-1.91-1.756-1.21 0-1.846.564-2.144 1.67l-2.398-.564c.552-1.886 2.186-3.36 4.648-3.36 2.674 0 4.288 1.3 4.288 3.923v4.899c0 .65.275.845.976.758v2.016c-1.847.217-2.823-.152-3.205-1.084-.7.802-1.868 1.279-3.311 1.279m3.056-4.205v-1.387l-2.398.52c-1.082.239-1.889.585-1.889 1.604 0 .889.637 1.387 1.613 1.387 1.358 0 2.674-.737 2.674-2.124M96.053 35.3v-6.307h-1.55v-2.21h1.55v-3.338h2.505v3.338h2.334v2.21h-2.334v5.896c0 1.018.573 1.127 1.485 1.127a8 8 0 0 0 1.04-.065v2.189c-.466.086-1.103.151-1.761.151-2.123 0-3.269-.671-3.269-2.99M105.304 38.357c-2.122 0-3.756-1.322-3.756-3.36 0-2.167 1.592-3.12 3.735-3.576l3.077-.65v-.195c0-1.084-.551-1.756-1.909-1.756-1.21 0-1.847.564-2.144 1.67l-2.398-.564c.551-1.886 2.186-3.36 4.647-3.36 2.675 0 4.288 1.3 4.288 3.923v4.899c0 .65.277.845.977.758v2.016c-1.847.217-2.824-.152-3.206-1.084-.7.802-1.867 1.279-3.311 1.279m3.056-4.205v-1.387l-2.397.52c-1.082.239-1.889.585-1.889 1.604 0 .889.637 1.387 1.612 1.387 1.359 0 2.674-.737 2.674-2.124"/></svg>
